SVGs/Move.svg

<svg height="269" viewBox="0 0 273 269" width="273" xmlns="http://www.w3.org/2000/svg"><path d="m136 266c-74.1 0-134-59-134-132s59.9-132 134-132 134 59 134 132-59.9 132-134 132z" fill="#fff" stroke="#bfbfbf" stroke-width="4"/><path d="m161.48 45.57c0-9.7-7.75-17.57-17.3-17.57s-17.29 7.87-17.29 17.57 7.74 17.56 17.29 17.56 17.3-7.86 17.3-17.56zm-8.65 76.85 28.1 10.98s9.68 5.52 12.97-2.19c3.4-7.93-2.16-10.98-2.16-10.98l-36.75-15.37zm-43.26 15.4 36.75 48.3 8.65 35.14s3.03 7.94 10.81 6.58c6.71-1.19 8.65-8.78 8.65-8.78l-8.65-43.91-19.46-30.75 2.17-48.31v-17.56s-3.86-8.96-19.46-8.79c-6.69.07-25.94 13.17-25.94 13.17s-18.08 10-19.46 15.37c-2.73 10.67-8.63 32.93-8.63 32.93s1.37 8.93 6.48 8.78c5.59-.16 8.65-10.98 8.65-10.98l8.65-24.16 12.95-8.75zm.02 39.49-23.78 30.75s-7.18 8.61 2.16 15.37c7.67 5.54 15.13-2.2 15.13-2.2l30.27-41.72-19.46-24.15z" fill="#5999e4"/></svg>

<svg xmlns="http://www.w3.org/2000/svg" viewBox="0 0 273 269" width="273" height="269">
	<style>
		tspan { white-space:pre }
		.shp0 { fill: #ffffff;stroke: #bfbfbf;stroke-width: 4 } 
		.shp1 { fill: #5999e4 } 
	</style>
	<path id="Shape 2" class="shp0" d="M136 266C61.9 266 2 207 2 134C2 61 61.9 2 136 2C210.1 2 270 61 270 134C270 207 210.1 266 136 266Z" />
	<path id="path" class="shp1" d="M161.48 45.57C161.48 35.87 153.73 28 144.18 28C134.63 28 126.89 35.87 126.89 45.57C126.89 55.27 134.63 63.13 144.18 63.13C153.73 63.13 161.48 55.27 161.48 45.57ZM152.83 122.42L180.93 133.4C180.93 133.4 190.61 138.92 193.9 131.21C197.3 123.28 191.74 120.23 191.74 120.23L154.99 104.86L152.83 122.42ZM109.57 137.82L146.32 186.12L154.97 221.26C154.97 221.26 158 229.2 165.78 227.84C172.49 226.65 174.43 219.06 174.43 219.06L165.78 175.15L146.32 144.4L148.49 96.09L148.49 78.53C148.49 78.53 144.63 69.57 129.03 69.74C122.34 69.81 103.09 82.91 103.09 82.91C103.09 82.91 85.01 92.91 83.63 98.28C80.9 108.95 75 131.21 75 131.21C75 131.21 76.37 140.14 81.48 139.99C87.07 139.83 90.13 129.01 90.13 129.01L98.78 104.85L111.73 96.1L109.57 137.82ZM109.59 177.31L85.81 208.06C85.81 208.06 78.63 216.67 87.97 223.43C95.64 228.97 103.1 221.23 103.1 221.23L133.37 179.51L113.91 155.36L109.59 177.31Z" />
</svg>
